X: 1
T: Bobby Graham's Coach
C: Catherine Fraser (Aug 2005)
R: reel
M: C|
L: 1/8
K: G
DF \
|: "G"G2BG cGBG | DGBG "D7"cBAF | "G"G2BG cGBG | "D7"dcBA GFED |
|  "G"G2BG cGBG | DGBG "D7"cBAB | "G"dcBA GFED |1,2 "C"EDEF "D7"GFED :|["last" "C"ED"D7"EF "G"G2 |]
|: "Em"E2BE ^cEdE | DEBE "D"d^cBA | "Em"DEBE ^cEdE | "D"FDFA dAFD |
|  "Em"E2BE ^cEdE | DEBE "D"d^cBA | "G"G2BG "D"F2AF | "Em"B2BA "D"BAGF "d.C"[|]:|
